X: 33921
T: Red Star Line, The
R: reel
M: 4/4
K: Gmajor
G2BG EGDG|G2AB cBAB|GABd gdBG|cBAG E3G|
DGG2 EGDG|G2AB cBAB|GABd gdBG|AGFA G3F:|
g3d BGG2|A3B cdef|g3d BGBd|
[1 egfa g3z|g3d BGG2|cBAG FAdG|G2BG dGBG|AGFA G2Bd:|
[2 egfa gaba|g3d BGG2|cBAG FAdG|G2BG dGBG|AGFA G4||

